img/notes.svg

<?xml version="1.0" encoding="UTF-8" standalone="no"?>
<!-- Created with Inkscape (http://www.inkscape.org/) -->

<svg
   xmlns:dc="http://purl.org/dc/elements/1.1/"
   xmlns:cc="http://creativecommons.org/ns#"
   xmlns:rdf="http://www.w3.org/1999/02/22-rdf-syntax-ns#"
   xmlns:svg="http://www.w3.org/2000/svg"
   xmlns="http://www.w3.org/2000/svg"
   xmlns:xlink="http://www.w3.org/1999/xlink"
   xmlns:sodipodi="http://sodipodi.sourceforge.net/DTD/sodipodi-0.dtd"
   xmlns:inkscape="http://www.inkscape.org/namespaces/inkscape"
   version="1.0"
   width="32"
   height="32"
   id="svg3212"
   inkscape:version="0.48.3.1 r9886"
   sodipodi:docname="notes.svg"
   inkscape:export-filename="notes.png"
   inkscape:export-xdpi="90"
   inkscape:export-ydpi="90">
  <metadata
     id="metadata13">
    <rdf:RDF>
      <cc:Work
         rdf:about="">
        <dc:format>image/svg+xml</dc:format>
        <dc:type
           rdf:resource="http://purl.org/dc/dcmitype/StillImage" />
        <dc:title></dc:title>
      </cc:Work>
    </rdf:RDF>
  </metadata>
  <sodipodi:namedview
     pagecolor="#ffffff"
     bordercolor="#666666"
     borderopacity="1"
     objecttolerance="10"
     gridtolerance="10"
     guidetolerance="10"
     inkscape:pageopacity="0"
     inkscape:pageshadow="2"
     inkscape:window-width="1280"
     inkscape:window-height="773"
     id="namedview11"
     showgrid="false"
     inkscape:zoom="18.963318"
     inkscape:cx="26.270103"
     inkscape:cy="20.01307"
     inkscape:window-x="0"
     inkscape:window-y="-1"
     inkscape:window-maximized="1"
     inkscape:current-layer="svg3212"
     fit-margin-top="0"
     fit-margin-left="0"
     fit-margin-right="0"
     fit-margin-bottom="0" />
  <defs
     id="defs3214">
    <linearGradient
       id="linearGradient3587-6-5">
      <stop
         id="stop3589-9-2"
         style="stop-color:#000000;stop-opacity:1"
         offset="0" />
      <stop
         id="stop3591-7-4"
         style="stop-color:#363636;stop-opacity:1"
         offset="1" />
    </linearGradient>
    <linearGradient
       x1="32.361256"
       y1="4.561305"
       x2="32.361256"
       y2="18.561304"
       id="linearGradient2401"
       xlink:href="#linearGradient3587-6-5"
       gradientUnits="userSpaceOnUse"
       gradientTransform="translate(-21.361257,-0.561305)" />
    <linearGradient
       id="linearGradient3678">
      <stop
         style="stop-color:#ffffff;stop-opacity:1;"
         offset="0"
         id="stop3680" />
      <stop
         style="stop-color:#e6e6e6;stop-opacity:1;"
         offset="1"
         id="stop3682" />
    </linearGradient>
    <linearGradient
       gradientTransform="matrix(-0.4100229,0,0,0.5447147,78.029995,-3.8459034)"
       gradientUnits="userSpaceOnUse"
       xlink:href="#linearGradient3678"
       id="linearGradient2388"
       y2="38.279892"
       x2="159.68553"
       y1="14.403693"
       x1="159.68553" />
  </defs>
  <path
     id="path4199"
     d="M 6,1 C 3.784,1 2,2.784 2,5 l 0,20 c 0,2.216 1.784,4 4,4 l 20,0 c 2.216,0 4,-1.784 4,-4 L 30,8.28125 29.09375,9.1875 23.8125,3.90625 26.71875,1 6,1 z M 21.8125,5.90625 27.09375,11.1875 18.78125,19.5 10,23 13.5,14.21875 21.8125,5.90625 z M 14.40625,15.09375 11.75,19.5 l 1.75,1.75 4.40625,-2.65625 -3.5,-3.5 z"
     style="fill:#000000;fill-opacity:1;fill-rule:nonzero;stroke:none;stroke-width:1;marker:none;visibility:visible;display:inline;overflow:visible;enable-background:accumulate"
     inkscape:connector-curvature="0" />
  <path
     style="fill:#ffffff;fill-opacity:1;fill-rule:nonzero;stroke:none;stroke-width:1;marker:none;visibility:visible;display:inline;overflow:visible;enable-background:accumulate"
     d="M 6 2 C 3.784 2 2 3.784 2 6 L 2 26 C 2 28.216 3.784 30 6 30 L 26 30 C 28.216 30 30 28.216 30 26 L 30 9.28125 L 29.09375 10.1875 L 23.8125 4.90625 L 26.71875 2 L 6 2 z M 21.8125 6.90625 L 27.09375 12.1875 L 18.78125 20.5 L 10 24 L 13.5 15.21875 L 21.8125 6.90625 z M 14.40625 16.09375 L 11.75 20.5 L 13.5 22.25 L 17.90625 19.59375 L 14.40625 16.09375 z "
     id="rect2386" />
</svg>

<?xml version="1.0" encoding="UTF-8" standalone="no"?>
<svg xmlns:rdf="http://www.w3.org/1999/02/22-rdf-syntax-ns#" xmlns="http://www.w3.org/2000/svg" height="32" width="32" version="1.0" xmlns:cc="http://creativecommons.org/ns#" xmlns:xlink="http://www.w3.org/1999/xlink" xmlns:dc="http://purl.org/dc/elements/1.1/">
 <path fill="#FFF" d="m6 2c-2.216 0-4 1.784-4 4v20c0 2.216 1.784 4 4 4h20c2.216 0 4-1.784 4-4v-16.719l-0.906 0.9068-5.282-5.2818 2.907-2.9062h-20.719zm15.812 4.9062l5.282 5.2818-8.313 8.312-8.781 3.5 3.5-8.781 8.312-8.3128zm-7.406 9.1878l-2.656 4.406 1.75 1.75 4.406-2.656-3.5-3.5z"/>
</svg>
